X:1
T:Title
%%score ( 1 2 ) { 3 | 4 }
L:1/8
Q:1/4=100
M:6/8
K:Bb
V:1 treble nm="Grand Piano, Soprano"
V:2 treble 
V:3 treble nm="Choir Pad, Frenchman Mountain, 77.77 D"
V:4 bass 
V:1
 [FB]2 [FB] [FB]2 [Gc] | [FA]2 [CG] [CF]3 | [DF]2 [DF] FG[FA] | [DB]2 [C=E] [CF]3 | %4
w: By~Herbert~Stephen~~Irons,~1894 * * *||||
 [Fc]2 F [Fd]2 [Fd] | .d3 z3 | .e3 z3 | [Fd]2 [Ec] [DB]3 | [FB]2 [FB] [FB]2 [Fd] | %9
w: |||||
 [Ff]2 [Fc] [FA]3 | [DG]2 [DG] [DG]2 [GB] | .d3 z3 | z3 .=B3 | [Ge]2 [Ge] [Fe]3 | %14
w: |||||
 [Fd]2 [Ff] [DB]2 [Ge] | .d3 z3 | z6 |] %17
w: |||
V:2
 x6 | x6 | x6 | x6 | x6 | FG[_AB] [Ge]3 | E-[Ed][Fc] [Ff]2 [DB] | x6 | x6 | x6 | x6 | %11
 GD[GB] [^FA]3 | [Gc]2 [Gc] G-[Gc][Gd] | x6 | x6 | FB[Ac] B3- | B6 |] %17
V:3
 D2 D D2 C | C2[K:bass] B, A,3 | D2 B, C2 C | B,2 B, A,3 | A,B,C B,2 B, | DEF E3 | %6
 A,2[K:bass] A, B,2 B, | B,G,A, B,3 | D2 D D2 B, | C2 C C3 | B,2 B, B,2 B, | B,2[K:treble] C D3 | %12
 C2 C F2 F | E2 C C3 | B,2 B, B,2 B, | B,DE D3- | D6 |] %17
V:4
 B,,2 B,, D,2 E, | F,2 G, z3 | .B,3 A,2 A, | G,2 C, F,3 | F,G,A, z3 | B,2 B, E,3 | C,2 E, D,2 G, | %7
 F,2 F, B,,3 | B,,2 B,, .B,3 | B,A,A, F,3 | G,2 G, G,F,E, | D,2 D, D,3 | E,2 E, D,2 D, | %13
 C,CB, A,3 | z2 D, G,2 E, | F,2 F, B,,3- | B,,6 |] %17

